apps/spreadsheeteditor/mobile/resources/icons/common/icon-sort-rtl.svg

<svg width="24" height="24" viewBox="0 0 24 24" xmlns="http://www.w3.org/2000/svg">
<path fill-rule="evenodd" clip-rule="evenodd" d="M7.23259 2.45898C6.81857 2.4591 6.48274 2.79498 6.48259 3.20898L6.48357 18.4824L4.10173 16.1016C3.80888 15.8093 3.33392 15.8091 3.04118 16.1016C2.74834 16.3945 2.74835 16.8702 3.04118 17.1631L6.70329 20.8232C6.99621 21.1161 7.47097 21.1162 7.76384 20.8232L11.424 17.1631C11.7166 16.8702 11.7168 16.3944 11.424 16.1016C11.1312 15.8091 10.6563 15.8093 10.3635 16.1016L7.98357 18.4814L7.98259 3.20898C7.98243 2.79496 7.64663 2.45906 7.23259 2.45898Z" fill="#444444"/>
<path fill-rule="evenodd" clip-rule="evenodd" d="M10.5 5.79297C10.2978 5.79299 10.1155 5.91477 10.0381 6.10156C9.96072 6.28839 10.0035 6.50349 10.1465 6.64648L13.9785 10.4785C14.0723 10.5723 14.125 10.6995 14.125 10.832V15.918C14.125 16.0912 14.215 16.2517 14.3623 16.3428C14.5097 16.4339 14.6937 16.4427 14.8487 16.3652L17.0459 15.2666C17.5541 15.0125 17.875 14.4929 17.875 13.9248V10.832C17.8751 10.6995 17.9278 10.5723 18.0215 10.4785L21.8535 6.64648C21.9965 6.50349 22.0393 6.28839 21.9619 6.10156C21.8845 5.91477 21.7022 5.79298 21.5 5.79297H10.5Z" fill="#444444"/>
</svg>

<svg xmlns="http://www.w3.org/2000/svg" width="24" height="24" fill="none" viewBox="0 0 24 24">
  <path stroke="#444" stroke-linecap="round" stroke-linejoin="round" stroke-width="1.5" d="M7.233 3.21v17.084m0 0-3.661-3.661m3.661 3.66 3.66-3.66"/>
  <path fill="#444" fill-rule="evenodd" d="M10.5 5.793a.5.5 0 0 0-.354.853l3.832 3.833a.5.5 0 0 1 .147.353v5.086a.5.5 0 0 0 .724.447l2.197-1.098a1.5 1.5 0 0 0 .829-1.342v-3.093a.5.5 0 0 1 .146-.354l3.832-3.832a.5.5 0 0 0-.353-.853h-11Z" clip-rule="evenodd"/>
</svg>
